X:1
T:33
L:1/8
Q:1/4=80
M:7/4
K:Emin
V:1 treble nm="Piano" snm="Pno."
V:1
 EE B2 B2 A/G/A/d/ B6 | EE A2 A2 A/G/E/G/ E6 | GE E>D B,2 EE B3 A/B/ A2 | GB A>B A2 A/G/E/D/ E6 | %4
 BB e4 e/d/B/d/ B6 | AA d4 d/B/A/G/ A6 | EE B2 B2 AG/A/ d6 | BB e2 e2 f4 d2 Bd | e6- e8 |] %9

